X:1
T:The Sure Foundation
T:The Sure Foundation
T:Tullius Clinton O’Kane
T:Tullius Clinton O’Kane, 1871
T:Public Domain Courtesy of the Cyber Hymnal™
T:Public Domain Courtesy of the Cyber Hymnal™
C:Tullius Clinton O’Kane
Z:Public Domain
Z:Courtesy of the Cyber Hymnal™
%%score ( 1 2 ) ( 3 4 )
L:1/8
Q:1/4=112
M:4/4
K:G
V:1 treble 
V:2 treble 
V:3 bass 
V:4 bass 
V:1
 .[DB]2 .[DB]>.[Ec] .[DB]2 z [EA] | [EG]2 ([EG][FA]) [EG]3 [CE] | D2 [DG]2 (GA) [GB]2 | %3
w: 1.~There stands a rock on|shores of * time That|rears to Heaven * its|
w: 2.~That rock’s a cross, its|arms out- * spread, Ce-|les- tial glo- * ry|
w: 3.~That rock’s a tower, whose|loft- y * height, Il-|lumed with Heaven’s * un-|
 [FA]2 [Fd]2 (d2 c2) | .[DB]2 .[DB]>.[Ec] .[DB]2 z [EA] | [EG]2 ([EG][FA]) [EG]3 [CE] | %6
w: head sub- lime. *|That rock is cleft, and|they are * blest Who|
w: bathes its head; *|To its firm base my|all I * bring, And|
w: cloud- ed light, *|Opes wide its gate be-|neath the * dome Where|
 D2 [DG]2 [DB]3 [EA] | [DG]2 [CF]2 [B,G]4 ||"^Refrain" [Gd]2 [Gd]>[G^c] [Gd]2 [Ge]>[Gd] | %9
w: find with- in this|cleft a rest.||
w: to the Rock of|Ag- es cling.||
w: saints find rest with|Christ at home.||
 [Fd][Fc][Fc][FB] [Fc]2 z2 | [Fc]2 [Fc]>[FB] [Fc]2 [Fd]>[Dc] | [Ec][DB][DB][^C^A] [DB]2 z2 | %12
w: |||
w: |||
w: |||
 [Gd]2 [Bd]>[Ac] [GB]2 [GB]>[DA] | [DG][DG] (GF) [CE]4 | [Ec]2 [GB]>[EA] [DG]2 [DF]2 | %15
w: |||
w: |||
w: |||
 [CA]4 [B,G]4 |] %16
w: |
w: |
w: |
V:2
 x8 | x8 | D2 D2 x4 | x4 F4 | x8 | x8 | D2 x6 | x8 || x8 | x8 | x8 | x8 | x8 | x2 D2 x4 | x8 | %15
 x8 |] %16
V:3
 [G,,G,]2 [G,,G,]>[G,,G,] [G,,G,]2 z [C,G,] | [C,G,]2 [C,G,]2 [C,C]3 [C,G,] | %2
w: ~ ~ ~ ~ ~|~ ~ ~ ~|
 [B,,G,]2 [G,,B,]2 (B,C) [G,,G,D]2 | [D,C]2 [D,A,]2 [D,A,]4 | %4
w: ~ ~ ~ * ~|~ ~ ~|
 [G,,G,]2 [G,,G,]>[G,,G,] [G,,G,]2 z [C,G,] | [C,G,]2 [C,G,]2 [C,C]3 [C,G,] | %6
w: ~ ~ ~ ~ ~|~ ~ ~ ~|
 [B,,G,]2 [G,,B,]2 ([G,,G,][A,,F,][B,,G,])[C,C] | [D,B,]2 [D,A,]2 [G,,G,]4 || %8
w: ~ ~ ~ * * ~|~ ~ ~|
 [G,B,]2 [G,B,]>[G,^A,] [G,B,]2 [G,C]>[G,B,] | [D,B,][D,A,][D,A,][D,^G,] [D,A,]2 z2 | %10
w: Some build their hopes on the|ev- er drift- ing sand,|
 [D,A,]2 [D,A,]>[D,^G,] [D,B,]2 [D,B,]>[D,A,] | [G,,G,][G,,G,][G,,G,][G,,G,] [G,,G,]2 z2 | %12
w: Some on their fame, or their|trea- sure, or their land;|
 [G,B,]2 [G,D]>[G,D] [G,D]2 [G,D]>[G,C] | [G,B,][G,B,] [B,,G,]2 [C,G,]4 | %14
w: Mine’s on a Rock that for-|ev- er will stand,|
 [A,,A,]2 [B,,D]>[C,C] [D,B,]2 [D,A,]2 | [D,F,]4 [G,,G,]4 |] %16
w: Je- sus, the “Rock of|Ag- es.”|
V:4
 x8 | x8 | x4 G,2 x2 | x8 | x8 | x8 | x8 | x8 || x8 | x8 | x8 | x8 | x8 | x8 | x8 | x8 |] %16

